X: 28032
T: Moving Note, The
R: jig
M: 6/8
K: Gmajor
|:DEGB2d|deB d2B|A2A AGE|GAB AGE|
DEG B2d|deB d2B|A2G B2A|1 G3 G2E:|2 G3 GBc||
|:d2d dBG|deg edB|A2A AGE|GAB AGE|
[1d2d dBG|deg edB|A2G B2A|G2G GBc:|
[2DEG B2d|deB d2B|A2G B2A|G2G G2E||

